X: 30351
T: Old Pensioner, The
R: reel
M: 4/4
K: Dmajor
(3ABc|:d2 cd BE E2|(3FED AD FDFA|d2 cd BE E2|(3Bcd ec d2 (3ABc:|
d2 fd adfd|d2 fd cdec|d2 fd adfd|dBAF EDFA|
d2 fd adfd|d2 fd cdec|defd cdec|BABc dAFA||

